src/assets/anj-inactive.svg

<svg width="28" height="32" viewBox="0 0 28 32" fill="none" xmlns="http://www.w3.org/2000/svg">
<path fill-rule="evenodd" clip-rule="evenodd" d="M18.6265 18.3519C18.6281 18.3509 18.6299 18.35 18.6316 18.349C18.6318 18.3488 18.632 18.3487 18.6323 18.3485C18.6329 18.3483 18.6335 18.3479 18.6339 18.3477C18.6309 18.3493 18.6285 18.3507 18.6265 18.3519Z" fill="#2B2C2A"/>
<path fill-rule="evenodd" clip-rule="evenodd" d="M18.6265 18.3519C18.6281 18.3509 18.6299 18.35 18.6316 18.349C18.6318 18.3488 18.632 18.3487 18.6323 18.3485C18.6329 18.3483 18.6335 18.3479 18.6339 18.3477C18.6309 18.3493 18.6285 18.3507 18.6265 18.3519Z" stroke="#F8F2E6" stroke-width="0.8" stroke-linecap="round" stroke-linejoin="round"/>
<path fill-rule="evenodd" clip-rule="evenodd" d="M18.635 18.3465C18.6352 18.3463 18.6355 18.3462 18.6357 18.3461C18.6404 18.3433 18.643 18.3419 18.6439 18.3413C18.6441 18.3413 18.6442 18.3412 18.6443 18.3412C18.6408 18.3432 18.6376 18.345 18.635 18.3465Z" fill="#2B2C2A"/>
<path fill-rule="evenodd" clip-rule="evenodd" d="M18.635 18.3465C18.6352 18.3463 18.6355 18.3462 18.6357 18.3461C18.6404 18.3433 18.643 18.3419 18.6439 18.3413C18.6441 18.3413 18.6442 18.3412 18.6443 18.3412C18.6408 18.3432 18.6376 18.345 18.635 18.3465Z" stroke="#F8F2E6" stroke-width="0.8" stroke-linecap="round" stroke-linejoin="round"/>
<path fill-rule="evenodd" clip-rule="evenodd" d="M23.0679 15.8422C19.5492 17.8304 18.7839 18.2628 18.6455 18.341C18.6456 18.341 18.6454 18.3411 18.6449 18.3413C18.6436 18.3421 18.6401 18.3441 18.6359 18.3464C18.6348 18.347 18.6335 18.3478 18.6322 18.3485C18.6319 18.3486 18.6317 18.3487 18.6315 18.3489C18.6287 18.3505 18.6252 18.3525 18.6212 18.3547C18.6208 18.3549 18.6205 18.3551 18.6204 18.3553C18.62 18.3554 18.6198 18.3556 18.6195 18.3557C18.6176 18.3568 18.6179 18.3566 18.6195 18.3557C18.6197 18.3556 18.62 18.3554 18.6204 18.3553C18.6205 18.3552 18.6205 18.3551 18.6206 18.355C18.4893 18.4292 17.7401 18.8525 14.2268 20.8377C8.78484 17.761 10.602 18.788 5.38678 15.8419C7.07702 14.8869 12.5403 11.8 14.2279 10.8465C19.6895 13.9344 17.6069 12.7573 23.0679 15.8422ZM0.966183 8.34921C0.965491 20.3139 0.968116 12.3311 0.966716 23.335C11.1928 29.1116 4.0426 25.0748 14.2273 30.8279C15.5718 30.0685 25.9472 24.206 27.4886 23.335C27.4892 11.3703 27.4866 19.3531 27.488 8.34921C17.1785 2.52574 24.3463 6.57224 14.2273 0.856323C5.15928 5.97992 8.52348 4.07904 0.966183 8.34921Z" stroke="#F8F2E6" stroke-width="0.8" stroke-linecap="round" stroke-linejoin="round"/>
<path fill-rule="evenodd" clip-rule="evenodd" d="M14.2275 30.8279C15.5716 30.0685 25.9472 24.2059 27.4882 23.3352L27.4888 18.3395C25.8537 19.2634 15.8624 24.9089 14.2281 25.8322C12.9491 25.1098 6.6703 21.563 5.38615 20.8376L5.38676 15.842C7.0798 14.8854 12.5375 11.8016 14.2278 10.8466C19.6612 13.9184 17.6253 12.7678 23.0679 15.8422L23.0685 10.8466C21.7894 10.1242 15.5107 6.57741 14.2265 5.85193C12.8094 6.65268 2.34263 12.5668 0.96582 13.3446C0.967483 19.4842 0.967308 17.2195 0.966608 23.3348C11.1928 29.1115 4.04267 25.0747 14.2275 30.8279Z" fill="url(#paint0_linear)" fill-opacity="0.1"/>
<path fill-rule="evenodd" clip-rule="evenodd" d="M14.2275 30.8279C15.5716 30.0685 25.9472 24.2059 27.4882 23.3352L27.4888 18.3395C25.8537 19.2634 15.8624 24.9089 14.2281 25.8322C12.9491 25.1098 6.6703 21.563 5.38615 20.8376L5.38676 15.842C7.0798 14.8854 12.5375 11.8016 14.2278 10.8466C19.6612 13.9184 17.6253 12.7678 23.0679 15.8422L23.0685 10.8466C21.7894 10.1242 15.5107 6.57741 14.2265 5.85193C12.8094 6.65268 2.34263 12.5668 0.96582 13.3446C0.967483 19.4842 0.967308 17.2195 0.966608 23.3348C11.1928 29.1115 4.04267 25.0747 14.2275 30.8279Z" stroke="#FF8A8A" stroke-linejoin="round"/>
<path fill-rule="evenodd" clip-rule="evenodd" d="M14.2265 5.8519C15.5055 6.57438 21.7843 10.1212 23.0685 10.8466L23.0679 15.8422C13.9889 20.9721 23.3084 15.7063 14.2268 20.8377C8.79471 17.7665 10.7986 18.8991 5.38676 15.8419L5.38615 20.8376C6.66522 21.5601 12.944 25.1068 14.2281 25.8322C15.8627 24.9087 25.8544 19.2631 27.4888 18.3395C27.4872 12.2 27.4873 14.4647 27.488 8.34938C17.1783 2.52557 24.3463 6.57241 14.2271 0.856323C5.15917 5.98 8.52346 4.07904 0.966433 8.34904L0.96582 13.3446C2.3303 12.5737 12.9155 6.59271 14.2265 5.8519Z" fill="url(#paint1_linear)" fill-opacity="0.3"/>
<path fill-rule="evenodd" clip-rule="evenodd" d="M14.2265 5.8519C15.5055 6.57438 21.7843 10.1212 23.0685 10.8466L23.0679 15.8422C13.9889 20.9721 23.3084 15.7063 14.2268 20.8377C8.79471 17.7665 10.7986 18.8991 5.38676 15.8419L5.38615 20.8376C6.66522 21.5601 12.944 25.1068 14.2281 25.8322C15.8627 24.9087 25.8544 19.2631 27.4888 18.3395C27.4872 12.2 27.4873 14.4647 27.488 8.34938C17.1783 2.52557 24.3463 6.57241 14.2271 0.856323C5.15917 5.98 8.52346 4.07904 0.966433 8.34904L0.96582 13.3446C2.3303 12.5737 12.9155 6.59271 14.2265 5.8519Z" stroke="#FF8A8A" stroke-linejoin="round"/>
<defs>
<linearGradient id="paint0_linear" x1="24.9609" y1="10.6346" x2="4.7326" y2="29.9833" gradientUnits="userSpaceOnUse">
<stop stop-color="#FF8989"/>
<stop offset="1" stop-color="#FFB170"/>
</linearGradient>
<linearGradient id="paint1_linear" x1="24.9609" y1="5.63894" x2="4.73267" y2="24.9877" gradientUnits="userSpaceOnUse">
<stop stop-color="#FF8989"/>
<stop offset="1" stop-color="#FFB170"/>
</linearGradient>
</defs>
</svg>

<svg width="28" height="32" fill="none" xmlns="http://www.w3.org/2000/svg"><path fill-rule="evenodd" clip-rule="evenodd" d="M18.627 18.352l.005-.003.002-.001a.164.164 0 00-.008.004z" fill="#2B2C2A"/><path clip-rule="evenodd" d="M18.627 18.352l.005-.003s0 0 0 0l.002-.001a.164.164 0 00-.008.004z" stroke="#F8F2E6" stroke-width=".8" stroke-linecap="round" stroke-linejoin="round"/><path fill-rule="evenodd" clip-rule="evenodd" d="M18.635 18.346l.009-.005-.009.005z" fill="#2B2C2A"/><path clip-rule="evenodd" d="M18.635 18.346s0 0 0 0l.009-.005s0 0 0 0l-.009.005zM23.068 15.842l-4.423 2.499s0 0 0 0a.27.27 0 01-.01.005l-.003.003s0 0 0 0c-.003.002-.007.003-.01.006h-.002s0 0 0 0c-.002.002-.002.002 0 0 0 0 0 0 0 0s0 0 0 0l-4.393 2.483c-5.442-3.077-3.625-2.05-8.84-4.996l8.84-4.995 8.84 4.995zM.966 8.35c0 11.965.002 3.982 0 14.986 10.227 5.777 3.077 1.74 13.261 7.493l13.262-7.493c0-11.965-.002-3.982-.001-14.986-10.31-5.823-3.142-1.777-13.26-7.493L.965 8.35z" stroke="#F8F2E6" stroke-width=".8" stroke-linecap="round" stroke-linejoin="round"/><path fill-rule="evenodd" clip-rule="evenodd" d="M14.227 30.828l13.261-7.493V18.34l-13.26 7.492-8.842-4.994v-4.996l8.842-4.995 8.84 4.995v-4.995l-8.842-4.995-13.26 7.493v9.99c10.227 5.776 3.077 1.74 13.261 7.493z" fill="url(#paint0_linear)" fill-opacity=".1"/><path clip-rule="evenodd" d="M14.227 30.828l13.261-7.493V18.34l-13.26 7.492-8.842-4.994v-4.996l8.842-4.995 8.84 4.995v-4.995l-8.842-4.995-13.26 7.493v9.99c10.227 5.776 3.077 1.74 13.261 7.493z" stroke="#FF8A8A" stroke-linejoin="round"/><path fill-rule="evenodd" clip-rule="evenodd" d="M14.226 5.852l8.842 4.995v4.995l-8.841 4.996c-5.432-3.072-3.428-1.939-8.84-4.996v4.996l8.841 4.994 13.26-7.492V8.35c-10.31-5.824-3.142-1.778-13.26-7.494L.965 8.35v4.996l13.26-7.493z" fill="url(#paint1_linear)" fill-opacity=".3"/><path clip-rule="evenodd" d="M14.226 5.852l8.842 4.995v4.995l-8.841 4.996c-5.432-3.072-3.428-1.939-8.84-4.996v4.996l8.841 4.994 13.26-7.492V8.35c-10.31-5.824-3.142-1.778-13.26-7.494L.965 8.35v4.996l13.26-7.493z" stroke="#FF8A8A" stroke-linejoin="round"/><defs><linearGradient id="paint0_linear" x1="24.961" y1="10.635" x2="4.733" y2="29.983" gradientUnits="userSpaceOnUse"><stop stop-color="#FF8989"/><stop offset="1" stop-color="#FFB170"/></linearGradient><linearGradient id="paint1_linear" x1="24.961" y1="5.639" x2="4.733" y2="24.988" gradientUnits="userSpaceOnUse"><stop stop-color="#FF8989"/><stop offset="1" stop-color="#FFB170"/></linearGradient></defs></svg>
